public/assets/Highlight1.svg

<svg fill="none" height="113" viewBox="0 0 89 113" width="89" xmlns="http://www.w3.org/2000/svg"><g clip-rule="evenodd" fill="#000" fill-rule="evenodd"><path d="m84.6197 31.6024c-.345-4.2155-.6493-8.3888-1.117-12.592-.0973-.9046-.905-1.5526-1.8035-1.4531-.9046.0974-1.5549.9112-1.4554 1.8096.4619 4.1803.7648 8.3182 1.1062 12.5045.0766.9043.8694 1.5751 1.7653 1.5025.9042-.0766 1.581-.8673 1.5044-1.7715z"/><path d="m55.839 51.4837c-9.5668-9.3328-19.5992-18.1763-29.3587-27.2989-.6651-.6184-1.7015-.5816-2.3177.0773-.6184.6651-.5877 1.6991.0752 2.3237 9.7453 9.1037 19.7635 17.9281 29.3077 27.2459.6524.6348 1.6883.6189 2.3209-.0272.6348-.6524.6187-1.6882-.0274-2.3208z"/><path d="m36.8201 95.755c-11.1137-2.0351-22.3016-3.7624-33.39225-5.9216-.88726-.168-1.74678.4116-1.92097 1.2967-.17638.8912.40942 1.753 1.29448 1.9272 11.10524 2.1574 22.30554 3.889 33.43384 5.9223.8894.1618 1.7451-.4261 1.9069-1.3156.164-.8956-.4264-1.745-1.322-1.909z"/></g></svg>

<svg width="89" height="113" viewBox="0 0 89 113" fill="none" xmlns="http://www.w3.org/2000/svg">
<path fill-rule="evenodd" clip-rule="evenodd" d="M84.6197 31.6024C84.2747 27.3869 83.9704 23.2136 83.5027 19.0104C83.4054 18.1058 82.5977 17.4578 81.6992 17.5573C80.7946 17.6547 80.1443 18.4685 80.2438 19.3669C80.7057 23.5472 81.0086 27.6851 81.35 31.8714C81.4266 32.7757 82.2194 33.4465 83.1153 33.3739C84.0195 33.2973 84.6963 32.5066 84.6197 31.6024Z" fill="black"/>
<path fill-rule="evenodd" clip-rule="evenodd" d="M55.839 51.4837C46.2722 42.1509 36.2398 33.3074 26.4803 24.1848C25.8152 23.5664 24.7788 23.6032 24.1626 24.2621C23.5442 24.9272 23.5749 25.9612 24.2378 26.5858C33.9831 35.6895 44.0013 44.5139 53.5455 53.8317C54.1979 54.4665 55.2338 54.4506 55.8664 53.8045C56.5012 53.1521 56.4851 52.1163 55.839 51.4837Z" fill="black"/>
<path fill-rule="evenodd" clip-rule="evenodd" d="M36.8201 95.755C25.7064 93.7199 14.5185 91.9926 3.42785 89.8334C2.54059 89.6654 1.68107 90.245 1.50688 91.1301C1.3305 92.0213 1.9163 92.8831 2.80136 93.0573C13.9066 95.2147 25.1069 96.9463 36.2352 98.9796C37.1246 99.1414 37.9803 98.5535 38.1421 97.664C38.3061 96.7684 37.7157 95.919 36.8201 95.755Z" fill="black"/>
</svg>
